T: Gan Ainm
M: 6/8
L: 1/8
K: Emin
e^de BcA | G2 A BcB | AFG B^DF | E3- E2 :|F2 E ^D2 E | F^DG AFB | GAF BcA | B^AB e2 e |d^cd B=cA | G2 A BEG | F^DE B ^D2 | E3- E2 :|
